mobile/24/svg/sparkle-24.svg

<svg width="24" height="24" viewBox="0 0 24 24" fill="none" xmlns="http://www.w3.org/2000/svg">
<path d="M4.837 17.376L5.069 16.296C5.179 15.784 5.909 15.784 6.019 16.296L6.251 17.376C6.291 17.563 6.437 17.709 6.624 17.749L7.704 17.981C8.216 18.091 8.216 18.821 7.704 18.931L6.624 19.163C6.437 19.203 6.291 19.349 6.251 19.536L6.019 20.616C5.909 21.128 5.179 21.128 5.069 20.616L4.837 19.536C4.797 19.349 4.651 19.203 4.464 19.163L3.384 18.931C2.872 18.821 2.872 18.091 3.384 17.981L4.464 17.749C4.651 17.709 4.797 17.563 4.837 17.376Z" fill="black"/>
<path d="M4.837 4.464L5.069 3.384C5.179 2.872 5.909 2.872 6.019 3.384L6.251 4.464C6.291 4.651 6.437 4.797 6.624 4.837L7.704 5.069C8.216 5.179 8.216 5.909 7.704 6.019L6.624 6.251C6.437 6.291 6.291 6.437 6.251 6.624L6.019 7.704C5.909 8.216 5.179 8.216 5.069 7.704L4.837 6.624C4.797 6.437 4.651 6.291 4.464 6.251L3.384 6.019C2.872 5.909 2.872 5.179 3.384 5.069L4.464 4.837C4.651 4.797 4.797 4.651 4.837 4.464Z" fill="black"/>
<path fill-rule="evenodd" clip-rule="evenodd" d="M14.16 6.98108L13.126 9.6039C12.851 10.3003 12.3008 10.8504 11.6059 11.1262L8.98108 12.161C8.67288 12.2827 8.6727 12.7182 8.9809 12.84L11.6039 13.874C12.3001 14.1489 12.8509 14.6994 13.1258 15.3956L14.16 18.0189C14.2817 18.3271 14.7172 18.3273 14.839 18.0191L15.873 15.3961C16.1479 14.6999 16.6984 14.1491 17.3946 13.8742L20.0169 12.84C20.3253 12.7183 20.3253 12.2817 20.017 12.16L17.395 11.126C16.6988 10.8511 16.1481 10.3006 15.8732 9.60439L14.839 6.98108C14.7173 6.67288 14.2817 6.67287 14.16 6.98108ZM12.532 6.33892C13.2364 4.55336 15.7626 4.55336 16.467 6.33892L17.5008 8.96161C17.598 9.20716 17.7918 9.40117 18.0374 9.49816L20.659 10.532C22.4446 11.2363 22.4446 13.7636 20.6591 14.468L18.0374 15.5018C17.7917 15.5989 17.598 15.7925 17.5009 16.0382L16.467 18.6609C15.7627 20.4465 13.2364 20.4466 12.532 18.6611L11.4982 16.0384C11.4012 15.7928 11.2077 15.5992 10.9621 15.502L8.3391 14.468C6.55354 13.7637 6.55336 11.2374 8.33892 10.533L10.9601 9.49975C11.2068 9.40155 11.4012 9.20706 11.4981 8.96178L12.532 6.33892Z" fill="black"/>
</svg>

<svg width="24" height="24" fill="none" xmlns="http://www.w3.org/2000/svg"><path d="m4.837 17.376.232-1.08c.11-.512.84-.512.95 0l.232 1.08c.04.187.186.333.373.373l1.08.232c.512.11.512.84 0 .95l-1.08.232a.485.485 0 0 0-.373.373l-.232 1.08c-.11.512-.84.512-.95 0l-.232-1.08a.485.485 0 0 0-.373-.373l-1.08-.232c-.512-.11-.512-.84 0-.95l1.08-.232a.485.485 0 0 0 .373-.373zM4.837 4.464l.232-1.08c.11-.512.84-.512.95 0l.232 1.08c.04.187.186.333.373.373l1.08.232c.512.11.512.84 0 .95l-1.08.232a.485.485 0 0 0-.373.373l-.232 1.08c-.11.512-.84.512-.95 0l-.232-1.08a.485.485 0 0 0-.373-.373l-1.08-.232c-.512-.11-.512-.84 0-.95l1.08-.232a.485.485 0 0 0 .373-.373z" fill="#000"/><path fill-rule="evenodd" clip-rule="evenodd" d="m14.16 6.981-1.034 2.623a2.707 2.707 0 0 1-1.52 1.522L8.98 12.161a.365.365 0 0 0 0 .679l2.623 1.034a2.703 2.703 0 0 1 1.522 1.522l1.034 2.623a.365.365 0 0 0 .679 0l1.034-2.623a2.703 2.703 0 0 1 1.522-1.522l2.622-1.034a.366.366 0 0 0 0-.68l-2.622-1.034a2.703 2.703 0 0 1-1.522-1.522L14.84 6.981a.365.365 0 0 0-.679 0zm-1.628-.642c.704-1.786 3.23-1.786 3.935 0l1.034 2.623c.097.245.29.44.536.536l2.622 1.034c1.786.704 1.786 3.232 0 3.936l-2.622 1.034a.952.952 0 0 0-.536.536l-1.034 2.623c-.704 1.785-3.23 1.786-3.935 0l-1.034-2.623a.952.952 0 0 0-.536-.536L8.34 14.468c-1.785-.704-1.786-3.23 0-3.935L10.96 9.5a.959.959 0 0 0 .538-.538l1.034-2.623z" fill="#000"/></svg>
